X:1
T:Slaudeen's Delight
D:Forever by Dingle Shore, by Dingle band Slaudeen
B:Green and Gold, Steve MacDonogh, Brandon, 1983
N:a Dingle Wren tune, variant of Sweet Biddy Daly
N:transposed from Eb
Z:Paul de Grae  irtrad-l 2001-12-20
M:6/8
L:1/8
K:G
e|dBG AGA|B2 G GED|GFG GAB|BAG A2 e|
dBG AGA|B2 G GED|GFG GAB|AGF G2:|:z|
GAB/c/ d2 d|d2 e dBG|GAB/c/ d2 e|dBG ABA|
GAB d2 d|d2 e dBd|~e3 dBA|AGF G2:||
